packages/core/src/svgs/tokens/mono/CROID.svg

<svg width="24" height="24" viewBox="0 0 24 24" fill="none" xmlns="http://www.w3.org/2000/svg">
<path d="M2.625 3.87329C2.45924 3.87329 2.30027 3.93913 2.18305 4.05634C2.06584 4.17356 2 4.33252 2 4.49829C2 4.66404 2.06584 4.82301 2.18305 4.94022C2.30027 5.05744 2.45924 5.12328 2.625 5.12328H7.62498V18.8733H2.625C2.45924 18.8733 2.30027 18.9391 2.18305 19.0563C2.06584 19.1736 2 19.3325 2 19.4983C2 19.664 2.06584 19.823 2.18305 19.9402C2.30027 20.0575 2.45924 20.1232 2.625 20.1232H8.24998C8.41575 20.1232 8.57475 20.0575 8.69186 19.9402C8.80911 19.823 8.87502 19.664 8.87502 19.4983V4.49829C8.87502 4.33252 8.80911 4.17356 8.69186 4.05634C8.57475 3.93913 8.41575 3.87329 8.24998 3.87329H2.625ZM11.375 3.87329C11.2092 3.87329 11.0503 3.93913 10.933 4.05634C10.8158 4.17356 10.75 4.33252 10.75 4.49829C10.75 4.66404 10.8158 4.82301 10.933 4.94022C11.0503 5.05744 11.2092 5.12328 11.375 5.12328H13.8749C15.1375 5.12328 16.875 5.63579 18.2875 6.76703C19.0766 7.38726 19.7103 8.18311 20.1377 9.09124C20.5651 9.99949 20.7749 10.9948 20.7499 11.9983C20.7499 12.4795 20.6999 13.0295 20.5812 13.6045C20.5188 13.8607 20.6187 14.1358 20.8311 14.2921C21.1874 14.542 21.6875 14.3796 21.7812 13.9545C21.9374 13.2482 22 12.5796 22 11.9983C22 9.1608 20.725 7.11703 19.0688 5.79203C17.5918 4.60552 15.7687 3.93202 13.8749 3.87329H11.375ZM18.55 18.0546C18.7874 18.3295 18.75 18.7483 18.4374 18.942C17.0593 19.7601 15.477 20.1699 13.8749 20.1232H11.375C11.2092 20.1232 11.0503 20.0575 10.933 19.9402C10.8158 19.823 10.75 19.664 10.75 19.4983C10.75 19.3325 10.8158 19.1736 10.933 19.0563C11.0503 18.9391 11.2092 18.8733 11.375 18.8733H13.8749C15.4875 18.8733 16.7249 18.5107 17.6874 17.9357C17.8229 17.853 17.9827 17.8195 18.1399 17.8412C18.2972 17.8628 18.442 17.9382 18.55 18.0546ZM2.625 6.37328C2.45924 6.37328 2.30027 6.43914 2.18305 6.55634C2.06584 6.67355 2 6.83252 2 6.99827C2 7.16404 2.06584 7.32302 2.18305 7.44022C2.30027 7.55743 2.45924 7.62329 2.625 7.62329H5.125V9.49826C5.125 9.66407 5.19084 9.82303 5.30805 9.94028C5.42525 10.0574 5.58423 10.1233 5.75 10.1233C5.91575 10.1233 6.07472 10.0574 6.19193 9.94028C6.30915 9.82303 6.37499 9.66407 6.37499 9.49826V6.99827C6.37499 6.83252 6.30915 6.67355 6.19193 6.55634C6.07472 6.43914 5.91575 6.37328 5.75 6.37328H2.625ZM10.75 6.99827C10.75 6.83252 10.8158 6.67355 10.933 6.55634C11.0503 6.43914 11.2092 6.37328 11.375 6.37328H13.8749C14.4999 6.37328 15.3375 6.49829 16.175 6.83579C16.4999 6.97328 16.6125 7.36079 16.4375 7.66704C16.2688 7.96077 15.8999 8.06703 15.5812 7.94827C14.9563 7.71703 14.3375 7.62329 13.8749 7.62329H11.375C11.2092 7.62329 11.0503 7.55743 10.933 7.44022C10.8158 7.32302 10.75 7.16404 10.75 6.99827ZM19.4625 11.2483C19.4453 11.1064 19.3753 10.9761 19.2665 10.8834C19.1576 10.7908 19.0179 10.7425 18.8749 10.7483C18.4812 10.7483 18.1875 11.117 18.225 11.5108C18.2375 11.6671 18.2438 11.8233 18.2438 11.9983C18.2438 13.792 17.5062 14.8546 16.6312 15.492C15.8205 16.053 14.8609 16.3599 13.8749 16.3733H11.375C11.2092 16.3733 11.0503 16.439 10.933 16.5563C10.8158 16.6735 10.75 16.8325 10.75 16.9983C10.75 17.164 10.8158 17.3229 10.933 17.4402C11.0503 17.5574 11.2092 17.6232 11.375 17.6232H13.8749C14.8125 17.6232 16.1937 17.3483 17.3625 16.5045C18.5687 15.6421 19.5 14.2046 19.5 11.9983C19.5 11.7358 19.4874 11.4858 19.4625 11.2483ZM2.625 9.49826C2.79075 9.49826 2.94972 9.56418 3.06694 9.68128C3.18415 9.79853 3.24999 9.95749 3.24999 10.1233V14.4983C3.24999 14.664 3.18415 14.8231 3.06694 14.9402C2.94972 15.0574 2.79075 15.1233 2.625 15.1233C2.45924 15.1233 2.30027 15.0574 2.18305 14.9402C2.06584 14.8231 2 14.664 2 14.4983V10.1233C2 9.95749 2.06584 9.79853 2.18305 9.68128C2.30027 9.56418 2.45924 9.49826 2.625 9.49826ZM11.375 9.49826C11.2092 9.49826 11.0503 9.56418 10.933 9.68128C10.8158 9.79853 10.75 9.95749 10.75 10.1233C10.75 10.289 10.8158 10.4481 10.933 10.5652C11.0503 10.6824 11.2092 10.7483 11.375 10.7483H13.8749C14.0562 10.7483 14.3624 10.7982 14.6312 10.9357C14.8937 11.0607 15.0687 11.2483 15.1437 11.5233C15.1607 11.6057 15.1943 11.6837 15.2421 11.7528C15.2901 11.822 15.3515 11.8807 15.4226 11.9255C15.4938 11.9704 15.5733 12.0005 15.6563 12.0137C15.7394 12.0272 15.8243 12.0237 15.9059 12.0035C15.9876 11.9833 16.0643 11.9468 16.1315 11.8962C16.1988 11.8457 16.2551 11.782 16.2971 11.7092C16.3392 11.6363 16.366 11.5558 16.3762 11.4723C16.3863 11.3888 16.3796 11.3041 16.3563 11.2233C16.2778 10.9178 16.133 10.6334 15.932 10.3903C15.7311 10.1472 15.4791 9.95151 15.1937 9.81705C14.7834 9.61347 14.3328 9.50453 13.8749 9.49826H11.375ZM10.75 13.8733C10.75 13.7074 10.8158 13.5485 10.933 13.4314C11.0503 13.3141 11.2092 13.2482 11.375 13.2482H13.25C13.4157 13.2482 13.5746 13.3141 13.6919 13.4314C13.8091 13.5485 13.8749 13.7074 13.8749 13.8733C13.8749 14.0391 13.8091 14.198 13.6919 14.3153C13.5746 14.4324 13.4157 14.4983 13.25 14.4983H11.375C11.2092 14.4983 11.0503 14.4324 10.933 14.3153C10.8158 14.198 10.75 14.0391 10.75 13.8733ZM6.37499 14.4983C6.37499 14.3325 6.30915 14.1735 6.19193 14.0563C6.07472 13.9392 5.91575 13.8733 5.75 13.8733C5.58423 13.8733 5.42525 13.9392 5.30805 14.0563C5.19084 14.1735 5.125 14.3325 5.125 14.4983V16.3733H2.625C2.45924 16.3733 2.30027 16.439 2.18305 16.5563C2.06584 16.6735 2 16.8325 2 16.9983C2 17.164 2.06584 17.3229 2.18305 17.4402C2.30027 17.5574 2.45924 17.6232 2.625 17.6232H5.75C5.91575 17.6232 6.07472 17.5574 6.19193 17.4402C6.30915 17.3229 6.37499 17.164 6.37499 16.9983V14.4983ZM6.37499 11.9983C6.37499 12.1641 6.30915 12.323 6.19193 12.4402C6.07472 12.5574 5.91575 12.6233 5.75 12.6233C5.58423 12.6233 5.42525 12.5574 5.30805 12.4402C5.19084 12.323 5.125 12.1641 5.125 11.9983C5.125 11.8325 5.19084 11.6735 5.30805 11.5563C5.42525 11.4392 5.58423 11.3732 5.75 11.3732C5.91575 11.3732 6.07472 11.4392 6.19193 11.5563C6.30915 11.6735 6.37499 11.8325 6.37499 11.9983ZM17.625 9.49826C17.7907 9.49826 17.9496 9.43249 18.0669 9.31524C18.1841 9.19799 18.2499 9.03903 18.2499 8.87328C18.2499 8.70751 18.1841 8.54854 18.0669 8.43133C17.9496 8.31413 17.7907 8.24828 17.625 8.24828C17.4592 8.24828 17.3002 8.31413 17.183 8.43133C17.0659 8.54854 17 8.70751 17 8.87328C17 9.03903 17.0659 9.19799 17.183 9.31524C17.3002 9.43249 17.4592 9.49826 17.625 9.49826ZM15.75 13.2482C15.75 13.414 15.6841 13.573 15.5669 13.6902C15.4498 13.8075 15.2908 13.8733 15.125 13.8733C14.9592 13.8733 14.8002 13.8075 14.683 13.6902C14.5659 13.573 14.5 13.414 14.5 13.2482C14.5 13.0825 14.5659 12.9236 14.683 12.8063C14.8002 12.6891 14.9592 12.6233 15.125 12.6233C15.2908 12.6233 15.4498 12.6891 15.5669 12.8063C15.6841 12.9236 15.75 13.0825 15.75 13.2482ZM20.125 17.6232C20.2907 17.6232 20.4496 17.5574 20.5669 17.4402C20.6841 17.3229 20.7499 17.164 20.7499 16.9983C20.7499 16.8325 20.6841 16.6735 20.5669 16.5563C20.4496 16.439 20.2907 16.3733 20.125 16.3733C19.9592 16.3733 19.8003 16.439 19.683 16.5563C19.5658 16.6735 19.5 16.8325 19.5 16.9983C19.5 17.164 19.5658 17.3229 19.683 17.4402C19.8003 17.5574 19.9592 17.6232 20.125 17.6232Z" fill="white"/>
</svg>

<svg xmlns="http://www.w3.org/2000/svg" width="24" height="24" fill="none" viewBox="0 0 24 24">
    <path fill="#fff" d="M2.625 3.873a.625.625 0 1 0 0 1.25h5v13.75h-5a.625.625 0 1 0 0 1.25H8.25a.624.624 0 0 0 .625-.625v-15a.625.625 0 0 0-.625-.625zm8.75 0a.625.625 0 0 0 0 1.25h2.5c1.262 0 3 .513 4.413 1.644a6.45 6.45 0 0 1 2.462 5.231c0 .482-.05 1.032-.169 1.607a.67.67 0 0 0 .25.687c.356.25.857.088.95-.338A9 9 0 0 0 22 11.999c0-2.837-1.275-4.881-2.931-6.206a8.73 8.73 0 0 0-5.194-1.919zm7.175 14.182c.237.274.2.693-.113.887a8.46 8.46 0 0 1-4.562 1.181h-2.5a.625.625 0 1 1 0-1.25h2.5c1.613 0 2.85-.362 3.812-.937a.69.69 0 0 1 .863.119M2.625 6.373a.625.625 0 0 0 0 1.25h2.5v1.875a.625.625 0 1 0 1.25 0v-2.5a.625.625 0 0 0-.625-.625zm8.125.625a.625.625 0 0 1 .625-.625h2.5c.625 0 1.463.125 2.3.463a.578.578 0 0 1 .262.831c-.168.294-.537.4-.856.281a5.1 5.1 0 0 0-1.706-.325h-2.5a.625.625 0 0 1-.625-.625m8.712 4.25a.57.57 0 0 0-.587-.5c-.394 0-.687.369-.65.763.012.156.019.312.019.487 0 1.794-.738 2.857-1.613 3.494-.81.561-1.77.868-2.756.881h-2.5a.625.625 0 1 0 0 1.25h2.5c.938 0 2.319-.275 3.488-1.119 1.206-.862 2.137-2.3 2.137-4.506q0-.393-.038-.75M2.625 9.498a.625.625 0 0 1 .625.625v4.375a.625.625 0 1 1-1.25 0v-4.375a.625.625 0 0 1 .625-.625m8.75 0a.626.626 0 0 0 0 1.25h2.5c.181 0 .487.05.756.188.263.125.438.312.513.587a.626.626 0 1 0 1.212-.3 2.15 2.15 0 0 0-1.162-1.406 3.1 3.1 0 0 0-1.32-.319zm-.625 4.375a.624.624 0 0 1 .625-.625h1.875a.625.625 0 0 1 0 1.25h-1.875a.626.626 0 0 1-.625-.625m-4.375.625a.625.625 0 1 0-1.25 0v1.875h-2.5a.625.625 0 1 0 0 1.25H5.75a.625.625 0 0 0 .625-.625zm0-2.5a.625.625 0 1 1-1.25 0 .625.625 0 0 1 1.25 0m11.25-2.5a.625.625 0 1 0 0-1.25.625.625 0 0 0 0 1.25m-1.875 3.75a.625.625 0 1 1-1.25 0 .625.625 0 0 1 1.25 0m4.375 4.375a.625.625 0 1 0 0-1.25.625.625 0 0 0 0 1.25"/>
</svg>
